dist/static/img/support/adv-3.svg

<svg width="48" height="48" viewBox="0 0 48 48" fill="none" xmlns="http://www.w3.org/2000/svg">
<path d="M18 39V45.75C18 46.164 18.3353 46.5 18.75 46.5H29.25C29.6648 46.5 30 46.164 30 45.75V39C30 37.3973 29.376 35.8905 28.2428 34.7572C27.7703 34.2855 27.231 33.9075 26.649 33.6202C27.6338 32.901 28.3267 31.8045 28.4685 30.5183C28.491 30.348 28.5 30.1778 28.5 30C28.5 29.853 28.4918 29.7135 28.4783 29.5875C28.2668 27.2955 26.3003 25.5 24 25.5C21.6997 25.5 19.7333 27.2955 19.5233 29.574C19.5083 29.7135 19.5 29.853 19.5 30C19.5 30.1778 19.509 30.348 19.5292 30.5002C19.6725 31.7985 20.3678 32.901 21.3555 33.6217C19.3718 34.602 18 36.6412 18 39ZM24 27C24.963 27 25.8375 27.4733 26.3903 28.2068C25.623 27.9105 24.8025 27.75 23.97 27.75C23.16 27.75 22.3763 27.8947 21.6398 28.167C22.1933 27.4582 23.0535 27 24 27ZM21.018 30.3195C21.0128 30.2775 21.0135 30.2333 21.0105 30.1913C21.8828 29.5845 22.8937 29.25 23.97 29.25C25.0725 29.25 26.103 29.598 26.9857 30.2302C26.9827 30.2662 26.9843 30.2985 26.979 30.3368C26.8125 31.8548 25.5315 33 24 33C22.4685 33 21.1875 31.8547 21.018 30.3195ZM24.705 39.663L24 41.073L23.295 39.663L24 36.8423L24.705 39.663ZM23.0115 34.6133L21.7725 39.5685C21.7283 39.7425 21.7492 39.9263 21.8287 40.086L23.3287 43.086C23.4562 43.3395 23.7158 43.5 24 43.5C24.2842 43.5 24.5438 43.3395 24.6713 43.0852L26.1713 40.0852C26.2508 39.9255 26.2718 39.7417 26.2275 39.5677L24.9885 34.6117C25.8128 34.7955 26.5702 35.2058 27.1823 35.817C28.032 36.6675 28.5 37.7977 28.5 39V45H19.5V39C19.5 36.8588 21.0045 35.0648 23.0115 34.6133Z" fill="white"/>
<path d="M44.7428 31.7572C44.2703 31.2855 43.731 30.9075 43.149 30.6202C44.1338 29.901 44.8267 28.8045 44.9685 27.5183C44.991 27.348 45 27.1778 45 27C45 26.853 44.9918 26.7135 44.9783 26.5875C44.7668 24.2955 42.8003 22.5 40.5 22.5C38.1997 22.5 36.2332 24.2955 36.0232 26.574C36.0082 26.7135 36 26.853 36 27C36 27.1778 36.009 27.348 36.0293 27.5002C36.1725 28.7985 36.8677 29.901 37.8555 30.6217C35.8717 31.602 34.5 33.6412 34.5 36V42.75C34.5 43.164 34.8353 43.5 35.25 43.5H45.75C46.1648 43.5 46.5 43.164 46.5 42.75V36C46.5 34.3973 45.876 32.8905 44.7428 31.7572ZM40.5 24C41.463 24 42.3375 24.4733 42.8903 25.2068C42.123 24.9105 41.3025 24.75 40.47 24.75C39.66 24.75 38.8763 24.8947 38.1398 25.167C38.6933 24.4582 39.5535 24 40.5 24ZM37.518 27.3195C37.5127 27.2775 37.5135 27.2333 37.5105 27.1913C38.3828 26.5845 39.3937 26.25 40.47 26.25C41.5725 26.25 42.603 26.598 43.4857 27.2302C43.4827 27.2662 43.4843 27.2985 43.479 27.3368C43.3125 28.8548 42.0315 30 40.5 30C38.9685 30 37.6875 28.8547 37.518 27.3195ZM41.205 36.663L40.5 38.073L39.795 36.663L40.5 33.8423L41.205 36.663ZM45 42H36V36C36 33.8588 37.5045 32.0648 39.5115 31.6133L38.2725 36.5685C38.2282 36.7425 38.2492 36.9263 38.3287 37.086L39.8287 40.086C39.9562 40.3395 40.2158 40.5 40.5 40.5C40.7842 40.5 41.0438 40.3395 41.1713 40.0852L42.6713 37.0852C42.7508 36.9255 42.7718 36.7417 42.7275 36.5677L41.4885 31.6117C42.3128 31.7955 43.0702 32.2058 43.6823 32.817C44.532 33.6675 45 34.7977 45 36V42Z" fill="white"/>
<path d="M2.25 43.5H12.75C13.1648 43.5 13.5 43.164 13.5 42.75V36C13.5 34.3973 12.876 32.8905 11.7428 31.7572C11.2702 31.2855 10.731 30.9075 10.149 30.6202C11.1337 29.901 11.8267 28.8045 11.9685 27.5183C11.991 27.348 12 27.1778 12 27C12 26.853 11.9917 26.7135 11.9782 26.5875C11.7667 24.2955 9.80025 22.5 7.5 22.5C5.19975 22.5 3.23325 24.2955 3.02325 26.574C3.00825 26.7135 3 26.853 3 27C3 27.1778 3.009 27.348 3.02925 27.5002C3.1725 28.7985 3.86775 29.901 4.8555 30.6217C2.87175 31.602 1.5 33.6412 1.5 36V42.75C1.5 43.164 1.83525 43.5 2.25 43.5ZM7.5 24C8.463 24 9.3375 24.4733 9.89025 25.2068C9.123 24.9105 8.3025 24.75 7.47 24.75C6.66 24.75 5.87625 24.8947 5.13975 25.167C5.69325 24.4582 6.5535 24 7.5 24ZM4.518 27.3195C4.51275 27.2775 4.5135 27.2333 4.5105 27.1913C5.38275 26.5845 6.39375 26.25 7.47 26.25C8.5725 26.25 9.603 26.598 10.4858 27.2302C10.4827 27.2662 10.4843 27.2985 10.479 27.3368C10.3125 28.8548 9.0315 30 7.5 30C5.9685 30 4.6875 28.8547 4.518 27.3195ZM8.205 36.663L7.5 38.073L6.795 36.663L7.5 33.8423L8.205 36.663ZM3 36C3 33.8588 4.5045 32.0648 6.5115 31.6133L5.2725 36.5677C5.22825 36.7417 5.24925 36.9255 5.32875 37.0852L6.82875 40.0852C6.95625 40.3395 7.21575 40.5 7.5 40.5C7.78425 40.5 8.04375 40.3395 8.17125 40.0852L9.67125 37.0852C9.75075 36.9255 9.77175 36.7417 9.7275 36.5677L8.4885 31.6117C9.31275 31.7955 10.0702 32.2058 10.6823 32.817C11.532 33.6675 12 34.7977 12 36V42H3V36Z" fill="white"/>
<path d="M34.5 15.75C34.9147 15.75 35.25 15.414 35.25 15V10.5C35.25 10.086 34.9147 9.75 34.5 9.75H32.4802C32.3745 9.45 32.2537 9.15675 32.1195 8.874L33.546 7.44675C33.8393 7.1535 33.8393 6.6795 33.546 6.38625L30.3645 3.204C30.0833 2.92275 29.5852 2.92275 29.304 3.204L27.8767 4.63125C27.5925 4.49625 27.3 4.3755 27 4.26975V2.25C27 1.836 26.6648 1.5 26.25 1.5H21.75C21.3352 1.5 21 1.836 21 2.25V4.26975C20.7 4.3755 20.4075 4.49625 20.124 4.6305L18.6968 3.20325C18.4155 2.922 17.9175 2.922 17.6362 3.20325L14.4548 6.3855C14.1615 6.67875 14.1615 7.15275 14.4548 7.446L15.8812 8.87325C15.7462 9.15675 15.6255 9.44925 15.5205 9.74925H13.5C13.0853 9.74925 12.75 10.0852 12.75 10.4992V14.9993C12.75 15.4132 13.0853 15.7493 13.5 15.7493H15.5198C15.6255 16.0493 15.7462 16.3425 15.8805 16.6252L14.454 18.0525C14.1607 18.3457 14.1607 18.8197 14.454 19.113L17.6355 22.2952C17.9167 22.5765 18.4147 22.5765 18.696 22.2952L20.1232 20.868C20.4067 21.003 20.6993 21.1238 20.9993 21.2288V23.25C20.9993 23.664 21.3345 24 21.7493 24H26.2493C26.664 24 26.9993 23.664 26.9993 23.25V21.2302C27.2993 21.1245 27.5918 21.0037 27.8752 20.8695L29.3025 22.2967C29.5837 22.578 30.0818 22.578 30.363 22.2967L33.5445 19.1145C33.8378 18.8213 33.8378 18.3472 33.5445 18.054L32.118 16.6268C32.253 16.3433 32.3738 16.0507 32.4788 15.7507H34.5V15.75ZM30.6712 17.2995L31.9552 18.5835L29.8342 20.7052L28.5503 19.4212C28.3125 19.1842 27.9465 19.134 27.654 19.2967C27.1553 19.5758 26.6145 19.7985 26.046 19.9598C25.7228 20.0513 25.5 20.346 25.5 20.6813V22.5H22.5V20.6813C22.5 20.346 22.2772 20.0513 21.954 19.9598C21.3855 19.7985 20.8448 19.5758 20.346 19.2967C20.0528 19.134 19.6868 19.1842 19.4498 19.4212L18.1658 20.7052L16.0447 18.5835L17.3287 17.2995C17.5657 17.0625 17.6167 16.6958 17.4532 16.4032C17.1743 15.9045 16.9507 15.3637 16.7895 14.7952C16.6987 14.4727 16.404 14.25 16.0687 14.25H14.25V11.25H16.0687C16.404 11.25 16.6987 11.0273 16.7902 10.7048C16.9515 10.1362 17.175 9.5955 17.454 9.09675C17.6175 8.8035 17.5665 8.4375 17.3295 8.2005L16.0455 6.9165L18.1665 4.79475L19.4505 6.07875C19.6875 6.3165 20.0535 6.36675 20.3467 6.20325C20.8455 5.92425 21.3863 5.7015 21.9548 5.54025C22.2773 5.44875 22.5 5.154 22.5 4.81875V3H25.5V4.81875C25.5 5.154 25.7228 5.44875 26.046 5.54025C26.6145 5.7015 27.1553 5.92425 27.654 6.20325C27.9473 6.3675 28.3133 6.3165 28.5503 6.07875L29.8342 4.79475L31.9552 6.9165L30.6712 8.2005C30.4342 8.4375 30.3832 8.80425 30.5467 9.09675C30.8258 9.5955 31.0492 10.1362 31.2105 10.7048C31.3012 11.0273 31.596 11.25 31.9313 11.25H33.75V14.25H31.9313C31.596 14.25 31.3012 14.4727 31.2097 14.7952C31.0485 15.3637 30.825 15.9045 30.546 16.4032C30.3833 16.6965 30.4335 17.0625 30.6712 17.2995Z" fill="white"/>
<path d="M24 6.75C20.6918 6.75 18 9.44175 18 12.75C18 16.0582 20.6918 18.75 24 18.75C27.3082 18.75 30 16.0582 30 12.75C30 9.44175 27.3082 6.75 24 6.75ZM24 17.25C21.5182 17.25 19.5 15.2318 19.5 12.75C19.5 10.2682 21.5182 8.25 24 8.25C26.4818 8.25 28.5 10.2682 28.5 12.75C28.5 15.2318 26.4818 17.25 24 17.25Z" fill="white"/>
<path d="M6.75 12.75V21H8.25V13.5H11.25V12H7.5C7.08525 12 6.75 12.336 6.75 12.75Z" fill="white"/>
<path d="M41.25 21V12.75C41.25 12.336 40.9148 12 40.5 12H36.75V13.5H39.75V21H41.25Z" fill="white"/>
</svg>

<svg width="48" height="48" viewBox="0 0 48 48" fill="none" xmlns="http://www.w3.org/2000/svg"><path d="M18 39v6.75c0 .414.335.75.75.75h10.5a.75.75 0 00.75-.75V39c0-1.603-.624-3.11-1.757-4.243a6.018 6.018 0 00-1.594-1.137c.985-.719 1.678-1.815 1.82-3.102a3.926 3.926 0 00.01-.93C28.266 27.294 26.3 25.5 24 25.5c-2.3 0-4.267 1.796-4.477 4.074a3.945 3.945 0 00.006.926 4.463 4.463 0 001.826 3.122A6.003 6.003 0 0018 39zm6-12c.963 0 1.837.473 2.39 1.207a6.725 6.725 0 00-2.42-.457 6.7 6.7 0 00-2.33.417A3.006 3.006 0 0124 27zm-2.982 3.32c-.005-.043-.005-.087-.008-.129a5.143 5.143 0 012.96-.941c1.103 0 2.133.348 3.016.98-.003.036-.002.069-.007.107A2.99 2.99 0 0124 33a2.996 2.996 0 01-2.982-2.68zm3.687 9.343L24 41.073l-.705-1.41.705-2.82.705 2.82zm-1.693-5.05l-1.24 4.956a.749.749 0 00.057.517l1.5 3a.752.752 0 001.342 0l1.5-3c.08-.16.1-.344.056-.518l-1.239-4.956a4.47 4.47 0 012.194 1.205c.85.85 1.318 1.98 1.318 3.183v6h-9v-6a4.504 4.504 0 013.512-4.387zm21.731-2.856a6.018 6.018 0 00-1.594-1.137 4.441 4.441 0 001.82-3.102 3.926 3.926 0 00.01-.93C44.766 24.294 42.8 22.5 40.5 22.5c-2.3 0-4.267 1.796-4.477 4.074a3.946 3.946 0 00.006.926 4.462 4.462 0 001.826 3.122A6.003 6.003 0 0034.5 36v6.75c0 .414.335.75.75.75h10.5a.75.75 0 00.75-.75V36c0-1.603-.624-3.11-1.757-4.243zM40.5 24c.963 0 1.837.473 2.39 1.207a6.725 6.725 0 00-2.42-.457 6.7 6.7 0 00-2.33.417A3.006 3.006 0 0140.5 24zm-2.982 3.32c-.005-.043-.005-.087-.008-.129a5.143 5.143 0 012.96-.941c1.102 0 2.133.348 3.016.98-.003.036-.002.069-.007.107A2.99 2.99 0 0140.5 30a2.996 2.996 0 01-2.982-2.68zm3.687 9.343l-.705 1.41-.705-1.41.705-2.82.705 2.82zM45 42h-9v-6a4.504 4.504 0 013.511-4.387l-1.239 4.956a.748.748 0 00.057.517l1.5 3a.752.752 0 001.342 0l1.5-3c.08-.16.1-.344.056-.518l-1.238-4.956a4.47 4.47 0 012.193 1.205c.85.85 1.318 1.98 1.318 3.183v6zM2.25 43.5h10.5a.75.75 0 00.75-.75V36c0-1.603-.624-3.11-1.757-4.243a6.02 6.02 0 00-1.594-1.137 4.441 4.441 0 001.82-3.102 3.926 3.926 0 00.01-.93C11.766 24.294 9.8 22.5 7.5 22.5c-2.3 0-4.267 1.796-4.477 4.074a3.946 3.946 0 00.006.926 4.462 4.462 0 001.827 3.122A6.003 6.003 0 001.5 36v6.75c0 .414.335.75.75.75zM7.5 24a3 3 0 012.39 1.207 6.725 6.725 0 00-2.42-.457 6.7 6.7 0 00-2.33.417A3.006 3.006 0 017.5 24zm-2.982 3.32c-.005-.043-.005-.087-.007-.129a5.143 5.143 0 012.959-.941c1.103 0 2.133.348 3.016.98-.003.036-.002.069-.007.107A2.99 2.99 0 017.5 30a2.996 2.996 0 01-2.982-2.68zm3.687 9.343l-.705 1.41-.705-1.41.705-2.82.705 2.82zM3 36a4.504 4.504 0 013.511-4.387l-1.239 4.955a.748.748 0 00.057.517l1.5 3a.75.75 0 001.342 0l1.5-3c.08-.16.1-.343.056-.517l-1.239-4.956a4.47 4.47 0 012.194 1.205c.85.85 1.318 1.98 1.318 3.183v6H3v-6zm31.5-20.25a.75.75 0 00.75-.75v-4.5a.75.75 0 00-.75-.75h-2.02a9.093 9.093 0 00-.36-.876l1.426-1.427a.75.75 0 000-1.06l-3.181-3.183a.772.772 0 00-1.061 0l-1.427 1.427A9.072 9.072 0 0027 4.27V2.25a.75.75 0 00-.75-.75h-4.5a.75.75 0 00-.75.75v2.02c-.3.106-.593.226-.876.36l-1.427-1.427a.772.772 0 00-1.06 0l-3.182 3.183a.75.75 0 000 1.06l1.426 1.427a8.8 8.8 0 00-.36.876H13.5a.75.75 0 00-.75.75V15c0 .414.335.75.75.75h2.02c.106.3.226.594.36.876l-1.426 1.427a.75.75 0 000 1.061l3.181 3.182a.772.772 0 001.061 0l1.427-1.427c.284.135.576.256.876.36v2.022c0 .414.335.75.75.75h4.5a.75.75 0 00.75-.75v-2.02c.3-.105.593-.226.876-.36l1.427 1.427a.772.772 0 001.061 0l3.181-3.183a.75.75 0 000-1.06l-1.426-1.427a8.61 8.61 0 00.36-.876H34.5v-.001zm-3.829 1.55l1.284 1.284-2.12 2.121-1.285-1.284a.752.752 0 00-.896-.124 7.473 7.473 0 01-1.608.663.75.75 0 00-.546.721V22.5h-3v-1.819a.75.75 0 00-.546-.721 7.469 7.469 0 01-1.608-.663.752.752 0 00-.896.124l-1.284 1.284-2.121-2.121 1.284-1.285a.75.75 0 00.124-.896 7.473 7.473 0 01-.663-1.608.749.749 0 00-.721-.545H14.25v-3h1.819a.75.75 0 00.721-.545c.162-.569.385-1.11.664-1.608a.75.75 0 00-.125-.896l-1.284-1.285 2.121-2.121 1.285 1.284a.75.75 0 00.896.124 7.472 7.472 0 011.608-.663.75.75 0 00.545-.721V3h3v1.819c0 .335.223.63.546.721.569.162 1.11.384 1.608.663a.75.75 0 00.896-.124l1.284-1.284 2.121 2.122L30.671 8.2a.75.75 0 00-.124.896c.279.498.502 1.04.663 1.608a.75.75 0 00.721.545h1.819v3h-1.819a.75.75 0 00-.721.545 7.468 7.468 0 01-.664 1.608.751.751 0 00.125.896z" fill="#fff"/><path d="M24 6.75c-3.308 0-6 2.692-6 6s2.692 6 6 6 6-2.692 6-6-2.692-6-6-6zm0 10.5a4.504 4.504 0 01-4.5-4.5c0-2.482 2.018-4.5 4.5-4.5s4.5 2.018 4.5 4.5-2.018 4.5-4.5 4.5zm-17.25-4.5V21h1.5v-7.5h3V12H7.5a.75.75 0 00-.75.75zM41.25 21v-8.25a.75.75 0 00-.75-.75h-3.75v1.5h3V21h1.5z" fill="#fff"/></svg>
